!!!SOCIAL_FUNCTION:	bird dance songs
!!!PDT:	1956
!!!OTL: No_92_Chicken_Dance_Song_(a).krn
!!!LANG: Non-Tone
!!!LING_GROUP: Muskogean
!!!REG: Florida
**kern
*staff1
=1-
*clefF4
*k[b-]
*M2/4
8F\L
8F\J
4F\
=2
4F\
4c\
=3!|:
*M5/8
2c\
8A\
=4||
*M3/4
4F\
4F\
4A\
=5||
*M5/8
2G\
8F\
=6||
*M2/4
4D\
4D\
=7
4F\
4F\
=8
=
*M3/4
8.A\L
16F\Jk
4F\
8G\L
8F\J
=9||
*M5/8
4G\
4r
8F\
=10||
*M3/4
4D\
4D\
4F\
=11||
*M5/8
2F\
8F\
=12
*M3/4
4F\
4F\
4c\
=13:|!
*M4/4
4D\
4F\
4F\
4F\
==
*-
